<?xml version="1.0"?><map version="1.10" orientation="orthogonal" renderorder="right-down" width="12" height="18" tilewidth="32" tileheight="32" infinite="0"><tileset firstgid="1" source="carriage.tsx"/><layer id="1" name="floor" width="12" height="18"><data encoding="csv">1,1,1,1,1,1,1,1,1,1,1,1,1,1,1,1,1,1,1,1,1,1,1,1,1,1,1,1,1,1,1,1,1,1,1,1,1,1,1,1,1,1,1,1,1,1,1,1,1,1,1,1,1,1,1,1,1,1,1,1,1,1,1,1,1,1,1,1,1,1,1,1,1,1,1,1,1,1,1,1,1,1,1,1,1,1,1,1,1,1,1,1,1,1,1,1,1,1,1,1,1,1,1,1,1,1,1,1,1,1,1,1,1,1,1,1,1,1,1,1,1,1,1,1,1,1,1,1,1,1,1,1,1,1,1,1,1,1,1,1,1,1,1,1,1,1,1,1,1,1,1,1,1,1,1,1,1,1,1,1,1,1,1,1,1,1,1,1,1,1,1,1,1,1,1,1,1,1,1,1,1,1,1,1,1,1,1,1,1,1,1,1,1,1,1,1,1,1,1,1,1,1,1,1,1,1,1,1,1,1,1,1,1,1,1,1</data></layer><objectgroup id="2" name="collision"><object id="1" x="0" y="0" width="384" height="76"><properties><property name="collision" type="bool" value="true"/></properties></object><object id="2" x="0" y="498" width="384" height="78"><properties><property name="collision" type="bool" value="true"/></properties></object><object id="3" x="0" y="0" width="144" height="576"><properties><property name="collision" type="bool" value="true"/></properties></object><object id="4" x="240" y="0" width="144" height="576"><properties><property name="collision" type="bool" value="true"/></properties></object><object id="5" x="150" y="280" width="24" height="24"><properties><property name="collision" type="bool" value="true"/></properties></object><object id="6" x="210" y="338" width="24" height="24"><properties><property name="collision" type="bool" value="true"/></properties></object><object id="7" x="150" y="396" width="24" height="24"><properties><property name="collision" type="bool" value="true"/></properties></object><object id="8" x="150" y="112" width="22" height="44"><properties><property name="collision" type="bool" value="true"/></properties></object><object id="9" x="216" y="196" width="16" height="24"><properties><property name="collision" type="bool" value="true"/></properties></object><object id="10" x="217.5" y="245" width="9" height="15"><properties><property name="collision" type="bool" value="true"/></properties></object></objectgroup></map>