<?xml version="1.0"?><map version="1.10" orientation="orthogonal" renderorder="right-down" width="12" height="18" tilewidth="32" tileheight="32" infinite="0"><tileset firstgid="1" source="carriage.tsx"/><layer id="1" name="floor" width="12" height="18"><data encoding="csv">1,1,1,1,1,1,1,1,1,1,1,1,1,1,1,1,1,1,1,1,1,1,1,1,1,1,1,1,1,1,1,1,1,1,1,1,1,1,1,1,1,1,1,1,1,1,1,1,1,1,1,1,1,1,1,1,1,1,1,1,1,1,1,1,1,1,1,1,1,1,1,1,1,1,1,1,1,1,1,1,1,1,1,1,1,1,1,1,1,1,1,1,1,1,1,1,1,1,1,1,1,1,1,1,1,1,1,1,1,1,1,1,1,1,1,1,1,1,1,1,1,1,1,1,1,1,1,1,1,1,1,1,1,1,1,1,1,1,1,1,1,1,1,1,1,1,1,1,1,1,1,1,1,1,1,1,1,1,1,1,1,1,1,1,1,1,1,1,1,1,1,1,1,1,1,1,1,1,1,1,1,1,1,1,1,1,1,1,1,1,1,1,1,1,1,1,1,1,1,1,1,1,1,1,1,1,1,1,1,1,1,1,1,1,1,1</data></layer><objectgroup id="2" name="collision"><object id="1" x="0" y="0" width="384" height="240"><properties><property name="collision" type="bool" value="true"/></properties></object><object id="2" x="0" y="528" width="384" height="48"><properties><property name="collision" type="bool" value="true"/></properties></object><object id="3" x="0" y="0" width="150" height="576"><properties><property name="collision" type="bool" value="true"/></properties></object><object id="4" x="234" y="0" width="150" height="576"><properties><property name="collision" type="bool" value="true"/></properties></object><object id="5" x="210" y="304" width="24" height="30"><properties><property name="collision" type="bool" value="true"/></properties></object><object id="6" x="164" y="184" width="56" height="52"><properties><property name="collision" type="bool" value="true"/></properties></object></objectgroup></map>