<?xml version="1.0"?><map version="1.10" orientation="orthogonal" renderorder="right-down" width="12" height="18" tilewidth="32" tileheight="32" infinite="0"><tileset firstgid="1" source="carriage.tsx"/><layer id="1" name="floor" width="12" height="18"><data encoding="csv">1,1,1,1,1,1,1,1,1,1,1,1,1,1,1,1,1,1,1,1,1,1,1,1,1,1,1,1,1,1,1,1,1,1,1,1,1,1,1,1,1,1,1,1,1,1,1,1,1,1,1,1,1,1,1,1,1,1,1,1,1,1,1,1,1,1,1,1,1,1,1,1,1,1,1,1,1,1,1,1,1,1,1,1,1,1,1,1,1,1,1,1,1,1,1,1,1,1,1,1,1,1,1,1,1,1,1,1,1,1,1,1,1,1,1,1,1,1,1,1,1,1,1,1,1,1,1,1,1,1,1,1,1,1,1,1,1,1,1,1,1,1,1,1,1,1,1,1,1,1,1,1,1,1,1,1,1,1,1,1,1,1,1,1,1,1,1,1,1,1,1,1,1,1,1,1,1,1,1,1,1,1,1,1,1,1,1,1,1,1,1,1,1,1,1,1,1,1,1,1,1,1,1,1,1,1,1,1,1,1,1,1,1,1,1,1</data></layer><objectgroup id="2" name="collision"><object id="1" x="0" y="0" width="384" height="76"><properties><property name="collision" type="bool" value="true"/></properties></object><object id="2" x="0" y="528" width="384" height="48"><properties><property name="collision" type="bool" value="true"/></properties></object><object id="3" x="0" y="0" width="150" height="576"><properties><property name="collision" type="bool" value="true"/></properties></object><object id="4" x="234" y="0" width="150" height="576"><properties><property name="collision" type="bool" value="true"/></properties></object><object id="5" x="150" y="216" width="24" height="30"><properties><property name="collision" type="bool" value="true"/></properties></object><object id="6" x="210" y="216" width="24" height="30"><properties><property name="collision" type="bool" value="true"/></properties></object><object id="7" x="150" y="272" width="24" height="30"><properties><property name="collision" type="bool" value="true"/></properties></object><object id="8" x="210" y="272" width="24" height="30"><properties><property name="collision" type="bool" value="true"/></properties></object><object id="9" x="150" y="328" width="24" height="30"><properties><property name="collision" type="bool" value="true"/></properties></object><object id="10" x="210" y="328" width="24" height="30"><properties><property name="collision" type="bool" value="true"/></properties></object><object id="11" x="150" y="384" width="24" height="30"><properties><property name="collision" type="bool" value="true"/></properties></object><object id="12" x="210" y="384" width="24" height="30"><properties><property name="collision" type="bool" value="true"/></properties></object><object id="13" x="150" y="440" width="24" height="30"><properties><property name="collision" type="bool" value="true"/></properties></object><object id="14" x="210" y="440" width="24" height="30"><properties><property name="collision" type="bool" value="true"/></properties></object><object id="15" x="150" y="84" width="22" height="44"><properties><property name="collision" type="bool" value="true"/></properties></object><object id="16" x="208" y="103" width="26" height="22"><properties><property name="collision" type="bool" value="true"/></properties></object><object id="17" x="217.5" y="169" width="9" height="15"><properties><property name="collision" type="bool" value="true"/></properties></object></objectgroup></map>