<?xml version="1.0"?><map version="1.10" orientation="orthogonal" renderorder="right-down" width="12" height="18" tilewidth="32" tileheight="32" infinite="0"><tileset firstgid="1" source="carriage.tsx"/><layer id="1" name="floor" width="12" height="18"><data encoding="csv">1,1,1,1,1,1,1,1,1,1,1,1,1,1,1,1,1,1,1,1,1,1,1,1,1,1,1,1,1,1,1,1,1,1,1,1,1,1,1,1,1,1,1,1,1,1,1,1,1,1,1,1,1,1,1,1,1,1,1,1,1,1,1,1,1,1,1,1,1,1,1,1,1,1,1,1,1,1,1,1,1,1,1,1,1,1,1,1,1,1,1,1,1,1,1,1,1,1,1,1,1,1,1,1,1,1,1,1,1,1,1,1,1,1,1,1,1,1,1,1,1,1,1,1,1,1,1,1,1,1,1,1,1,1,1,1,1,1,1,1,1,1,1,1,1,1,1,1,1,1,1,1,1,1,1,1,1,1,1,1,1,1,1,1,1,1,1,1,1,1,1,1,1,1,1,1,1,1,1,1,1,1,1,1,1,1,1,1,1,1,1,1,1,1,1,1,1,1,1,1,1,1,1,1,1,1,1,1,1,1,1,1,1,1,1,1</data></layer><objectgroup id="2" name="collision"><object id="1" x="0" y="0" width="384" height="96"><properties><property name="collision" type="bool" value="true"/></properties></object><object id="2" x="0" y="480" width="384" height="96"><properties><property name="collision" type="bool" value="true"/></properties></object><object id="3" x="0" y="96" width="72" height="384"><properties><property name="collision" type="bool" value="true"/></properties></object><object id="4" x="312" y="96" width="72" height="384"><properties><property name="collision" type="bool" value="true"/></properties></object></objectgroup></map>