<?xml version="1.0"?><map version="1.10" orientation="orthogonal" renderorder="right-down" width="12" height="18" tilewidth="32" tileheight="32" infinite="0"><tileset firstgid="1" source="carriage.tsx"/><layer id="1" name="floor" width="12" height="18"><data encoding="csv">1,1,1,1,1,1,1,1,1,1,1,1,1,1,1,1,1,1,1,1,1,1,1,1,1,1,1,1,1,1,1,1,1,1,1,1,1,1,1,1,1,1,1,1,1,1,1,1,1,1,1,1,1,1,1,1,1,1,1,1,1,1,1,1,1,1,1,1,1,1,1,1,1,1,1,1,1,1,1,1,1,1,1,1,1,1,1,1,1,1,1,1,1,1,1,1,1,1,1,1,1,1,1,1,1,1,1,1,1,1,1,1,1,1,1,1,1,1,1,1,1,1,1,1,1,1,1,1,1,1,1,1,1,1,1,1,1,1,1,1,1,1,1,1,1,1,1,1,1,1,1,1,1,1,1,1,1,1,1,1,1,1,1,1,1,1,1,1,1,1,1,1,1,1,1,1,1,1,1,1,1,1,1,1,1,1,1,1,1,1,1,1,1,1,1,1,1,1,1,1,1,1,1,1,1,1,1,1,1,1,1,1,1,1,1,1</data></layer><objectgroup id="2" name="collision"><object id="1" x="0" y="0" width="384" height="112"/><object id="2" x="0" y="432" width="384" height="144"/><object id="3" x="0" y="112" width="88" height="320"/><object id="4" x="296" y="112" width="88" height="320"/><object id="5" x="128" y="152" width="40" height="40"/><object id="6" x="228" y="236" width="48" height="40"/></objectgroup></map>